packages/icons/svg/Outline/paper-plane.svg

<svg width="24" height="24" viewBox="0 0 24 24" fill="none" xmlns="http://www.w3.org/2000/svg">
<g id="Icon/Outline/paper-plane">
<path id="Mask" fill-rule="evenodd" clip-rule="evenodd" d="M15 17.8379L13.144 12.2709L18.712 6.70193L15 17.8379ZM17.298 5.28793L11.73 10.8559L6.162 8.99993L17.298 5.28793ZM21.99 2.94793C21.985 2.85493 21.968 2.76493 21.937 2.67793C21.927 2.64693 21.916 2.61693 21.902 2.58693C21.854 2.47993 21.793 2.37893 21.707 2.29293C21.621 2.20693 21.52 2.14593 21.412 2.09793C21.383 2.08393 21.354 2.07293 21.323 2.06293C21.234 2.03193 21.143 2.01393 21.048 2.00893C21.026 2.00793 21.006 2.00293 20.983 2.00293C20.883 2.00493 20.782 2.01893 20.684 2.05093L2.684 8.05093C2.275 8.18793 2 8.56893 2 8.99993C2 9.43093 2.275 9.81293 2.684 9.94893L11.209 12.7909L14.052 21.3169C14.188 21.7249 14.569 21.9999 15 21.9999C15.431 21.9999 15.812 21.7249 15.948 21.3169L21.948 3.31693C21.98 3.21793 21.995 3.11793 21.996 3.01793C21.997 2.99393 21.991 2.97193 21.99 2.94793Z" fill="#000000"/>
</g>
</svg>

<svg fill="none" height="24" viewBox="0 0 24 24" width="24" xmlns="http://www.w3.org/2000/svg"><path clip-rule="evenodd" d="m15 17.8379-1.856-5.567 5.568-5.56897zm2.298-12.55003-5.568 5.56803-5.56803-1.85604zm4.692-2.33994c-.005-.093-.022-.183-.053-.27-.01-.031-.021-.061-.035-.091-.048-.107-.109-.208-.195-.294s-.187-.147-.295-.195c-.029-.014-.058-.025-.089-.035-.089-.031-.18-.049-.275-.054-.022-.001-.042-.006-.065-.006-.1.002-.201.016-.299.048l-18 6c-.409.137-.684.518-.684.949s.275.813.684.949l8.525 2.84197 2.843 8.526c.136.408.517.683.948.683s.812-.275.948-.683l6-17.99997c.032-.099.047-.199.048-.299.001-.024-.005-.046-.006-.07z" fill="#6b7280" fill-rule="evenodd"/></svg>
